static/icons/star.svg

<svg width="21" height="20" viewBox="0 0 21 20" fill="none" xmlns="http://www.w3.org/2000/svg">
<path d="M8.92201 0.930632C9.05958 0.651302 9.27248 0.416097 9.53662 0.251631C9.80076 0.0871642 10.1056 0 10.4166 0C10.7277 0 11.0325 0.0871642 11.2967 0.251631C11.5608 0.416097 11.7737 0.651302 11.9113 0.930632L14.2277 5.63205L19.4063 6.38294C19.7142 6.4277 20.0034 6.55785 20.2412 6.75865C20.479 6.95946 20.6559 7.2229 20.7519 7.51917C20.848 7.81544 20.8593 8.13271 20.7845 8.43508C20.7098 8.73744 20.5521 9.01283 20.3291 9.23007L16.5816 12.8865L17.4669 18.051C17.5191 18.3576 17.4847 18.6727 17.3675 18.9608C17.2504 19.2488 17.0551 19.4983 16.8038 19.6812C16.5526 19.864 16.2552 19.9729 15.9454 19.9956C15.6356 20.0182 15.3257 19.9537 15.0505 19.8093L10.4156 17.371L5.78276 19.8093C5.50762 19.9537 5.19766 20.0182 4.88786 19.9956C4.57805 19.9729 4.28073 19.864 4.02944 19.6812C3.77816 19.4983 3.58291 19.2488 3.46575 18.9608C3.34858 18.6727 3.31415 18.3576 3.36634 18.051L4.24958 12.8865L0.502061 9.22799C0.279702 9.01053 0.122514 8.73513 0.0482569 8.43291C-0.0260005 8.1307 -0.0143679 7.81371 0.0818406 7.51777C0.178049 7.22183 0.354999 6.95873 0.592697 6.75819C0.830395 6.55765 1.11937 6.42768 1.42696 6.38294L6.60559 5.62996L8.91993 0.930632H8.92201Z" fill="#24C4A1"/>
</svg>

<svg xmlns="http://www.w3.org/2000/svg" width="21" height="20" fill="none" xmlns:v="https://vecta.io/nano"><path d="M8.922.931A1.67 1.67 0 0 1 10.417 0a1.66 1.66 0 0 1 .88.252 1.67 1.67 0 0 1 .615.679l2.316 4.701 5.179.751c.308.045.597.175.835.376a1.67 1.67 0 0 1 .088 2.471l-3.747 3.656.885 5.164a1.67 1.67 0 0 1-.663 1.63 1.66 1.66 0 0 1-.858.314c-.309.022-.62-.042-.895-.186l-4.635-2.438-4.633 2.438c-.275.144-.585.209-.895.186s-.607-.132-.858-.314a1.67 1.67 0 0 1-.663-1.63l.883-5.164L.502 9.228a1.67 1.67 0 0 1-.42-1.71 1.67 1.67 0 0 1 .511-.76c.238-.201.527-.331.834-.375l5.179-.753L8.92.931h.002z" fill="#24c4a1"/></svg>
